apps/portfolio-v2/public/projects/spaceduck/showcase/logo.svg

<svg width="64" height="64" viewBox="0 0 64 64" fill="none" xmlns="http://www.w3.org/2000/svg">
<g clip-path="url(#clip0_6_411)">
<path d="M15.0073 8.24033C11.6958 9.2472 9.08182 11.9088 8.09296 15.2806C7.96265 15.7255 7.36473 15.7255 7.24208 15.2806C6.25322 11.9088 3.63924 9.2472 0.327704 8.24033C-0.109235 8.10765 -0.109235 7.49884 0.327704 7.37396C3.63924 6.36709 6.25322 3.70552 7.24208 0.333672C7.37239 -0.111224 7.97031 -0.111224 8.09296 0.333672C9.08182 3.70552 11.6958 6.36709 15.0073 7.37396C15.4443 7.50664 15.4443 8.11545 15.0073 8.24033Z" fill="#F0F1F4"/>
<path d="M64 39.625C64 40.886 63.0115 41.9 61.7822 41.9H51.935C51.3901 53.977 40.7445 64 28.198 64C15.6515 64 4.43563 53.431 4.43563 40.925V39.729L0.291474 32.358C-0.316843 31.266 0.0506815 29.875 1.10256 29.251C2.16712 28.627 3.52316 28.991 4.14415 30.083L8.23761 37.35H32.3168V24.675C32.3168 17.681 37.855 12 44.6733 12C51.4915 12 57.0297 17.681 57.0297 24.675V29.225C57.0297 30.486 56.0412 31.5 54.8119 31.5C53.5826 31.5 52.5941 30.486 52.5941 29.225V24.675C52.5941 20.19 49.0455 16.55 44.6733 16.55C40.301 16.55 36.7525 20.19 36.7525 24.675V37.35H38.9703C40.1996 37.35 41.1881 38.364 41.1881 39.625V40.6C41.1881 47.477 35.2443 53.275 28.198 53.275C23.9525 53.275 19.783 51.039 17.3243 47.425C16.6273 46.398 16.8808 44.981 17.882 44.253C18.8832 43.538 20.2645 43.798 20.9616 44.825C22.6091 47.23 25.3719 48.725 28.198 48.725C32.2915 48.725 35.9287 45.657 36.6384 41.9H8.89662C9.46692 51.351 18.2495 59.45 28.198 59.45C38.1465 59.45 47.5247 50.792 47.5247 40.925V39.625C47.5247 38.364 48.5133 37.35 49.7426 37.35H61.7822C63.0115 37.35 64 38.364 64 39.625Z" fill="#F0F1F4"/>
</g>
<defs>
<clipPath id="clip0_6_411">
<rect width="64" height="64" fill="white"/>
</clipPath>
</defs>
</svg>

<svg width="64" height="64" fill="none" xmlns="http://www.w3.org/2000/svg"><g clip-path="url(#a)" fill="#F0F1F4"><path d="M15.007 8.24c-3.311 1.007-5.925 3.669-6.914 7.04a.438.438 0 0 1-.85 0C6.252 11.91 3.638 9.248.327 8.24c-.437-.132-.437-.741 0-.866C3.639 6.367 6.253 3.706 7.242.334a.438.438 0 0 1 .851 0c.989 3.372 3.603 6.033 6.914 7.04.437.133.437.741 0 .866ZM64 39.625c0 1.261-.989 2.275-2.218 2.275h-9.847C51.39 53.977 40.745 64 28.198 64 15.652 64 4.436 53.431 4.436 40.925v-1.196L.29 32.358c-.608-1.092-.24-2.483.812-3.107a2.202 2.202 0 0 1 3.041.832l4.094 7.267h24.079V24.675C32.317 17.681 37.855 12 44.673 12c6.819 0 12.357 5.681 12.357 12.675v4.55c0 1.261-.989 2.275-2.218 2.275-1.23 0-2.218-1.014-2.218-2.275v-4.55c0-4.485-3.549-8.125-7.92-8.125-4.373 0-7.922 3.64-7.922 8.125V37.35h2.218c1.23 0 2.218 1.014 2.218 2.275v.975c0 6.877-5.944 12.675-12.99 12.675-4.245 0-8.415-2.236-10.874-5.85a2.328 2.328 0 0 1 .558-3.172c1.001-.715 2.383-.455 3.08.572 1.647 2.405 4.41 3.9 7.236 3.9 4.093 0 7.73-3.068 8.44-6.825H8.897c.57 9.451 9.353 17.55 19.301 17.55 9.949 0 19.327-8.658 19.327-18.525v-1.3c0-1.261.988-2.275 2.218-2.275h12.04c1.228 0 2.217 1.014 2.217 2.275Z"/></g><defs><clipPath id="a"><path fill="#fff" d="M0 0h64v64H0z"/></clipPath></defs></svg>
